X:5
T:Another Jig Will Do
O:Ireland
M:9/8
L:1/8
R:Slip Jig
K:D
|:ABA A2 G F2 G| ABA AGF G3| ABA A2 G F2 G| A2 d d2 c d3:|
|:A2 g f2 d e2 =c| A2 B =c2 B c2 d| A2 g f2 d e2 =c| A2 d d2 c d2 B|
|A2 g f2 d e2 =c| A2 B =c2 B c2 ^c| d=cA A2 G F2 G| A2 d d2 ^c d3:|
